icon-svg/walmart.svg

<svg xmlns="http://www.w3.org/2000/svg" fill="#44739e" viewBox="0 0 24 24"><path d="m8.225 13.132-4.776 2.217a1.22 1.22 0 0 0-.134 1.656c.384.655 1.056.968 1.5.706L9.134 14.7a.861.861 0 0 0 .031-1.066.854.854 0 0 0-.94-.502m7.552.001c-.3-.118-.7.1-.942.505a.867.867 0 0 0 .026 1.06l4.315 3.018c.448.256 1.123-.055 1.507-.711s.309-1.4-.135-1.656zM12 15.271a.856.856 0 0 0-.906.556l-.466 5.235c0 .518.606.938 1.372.938s1.371-.42 1.371-.938l-.462-5.235a.862.862 0 0 0-.909-.556m2.835-4.904a.88.88 0 0 0 .942.509l4.776-2.221c.444-.262.51-.995.135-1.654s-1.059-.97-1.507-.714L14.866 9.3a.882.882 0 0 0-.026 1.07ZM4.819 6.289c-.448-.262-1.12.05-1.5.71a1.219 1.219 0 0 0 .134 1.656l4.772 2.215a.854.854 0 0 0 .94-.5.859.859 0 0 0-.031-1.065ZM12 2c-.766 0-1.372.424-1.372.943l.472 5.234a.856.856 0 0 0 .9.556.862.862 0 0 0 .909-.556l.462-5.234C13.372 2.424 12.762 2 12 2"/></svg>

<?xml version="1.0" encoding="UTF-8"?>
<svg width="24px" fill="#44739e" height="24px" viewBox="0 0 24 24" version="1.1" xmlns="http://www.w3.org/2000/svg" xmlns:xlink="http://www.w3.org/1999/xlink">
            <path d="m 8.225,13.132 -4.776,2.217 a 1.22,1.22 0 0 0 -0.134,1.656 c 0.384,0.655 1.056,0.968 1.5,0.706 L 9.134,14.7 a 0.861,0.861 0 0 0 0.031,-1.066 0.854,0.854 0 0 0 -0.94,-0.502 z m 7.552,10e-4 c -0.3,-0.118 -0.7,0.1 -0.942,0.505 v 0 a 0.867,0.867 0 0 0 0.026,1.06 l 4.315,3.018 c 0.448,0.256 1.123,-0.055 1.507,-0.711 0.384,-0.656 0.309,-1.4 -0.135,-1.656 z M 12,15.271 a 0.856,0.856 0 0 0 -0.906,0.556 l -0.466,5.235 C 10.628,21.58 11.234,22 12,22 c 0.766,0 1.371,-0.42 1.371,-0.938 L 12.909,15.827 A 0.862,0.862 0 0 0 12,15.271 Z m 2.835,-4.904 a 0.88,0.88 0 0 0 0.942,0.509 L 20.553,8.655 C 20.997,8.393 21.063,7.66 20.688,7.001 20.313,6.342 19.629,6.031 19.181,6.287 L 14.866,9.3 A 0.882,0.882 0 0 0 14.84,10.37 Z M 4.819,6.289 c -0.448,-0.262 -1.12,0.05 -1.5,0.71 a 1.219,1.219 0 0 0 0.134,1.656 l 4.772,2.215 a 0.854,0.854 0 0 0 0.94,-0.5 v 0 A 0.859,0.859 0 0 0 9.134,9.305 Z M 12,2 C 11.234,2 10.628,2.424 10.628,2.943 L 11.1,8.177 A 0.856,0.856 0 0 0 12,8.733 0.862,0.862 0 0 0 12.909,8.177 L 13.371,2.943 C 13.372,2.424 12.762,2 12,2 Z"/>

</svg>
